X:1
T:Title
%%score { ( 1 3 ) | 2 }
L:1/8
Q:1/4=106
M:4/4
K:Db
V:1 treble nm="Grand Piano"
V:3 treble 
V:2 bass 
V:1
 F2 F>E D3 E | FEFA B2 A2 | [Fd] [Fd]2 [GB] [FA]FED | [DF]2 [DF]2 [CE]4 | F2 F>E D3 E | %5
w: C.~F.~Weigele * * * *|||||
 FEFA B2 A2 | [Fd] [Fd]2 [GB] [FA]FED | F2 [CE]2 z A/A/ AA | [Fd] [Fd]2 [Fd] [Fd]2 [DFA]2 | %9
w: ||||
 FEFA B2 A2 | [Fd] [Fd]2 [Fd] [Fd]2 [FA]2 | FFED [DF]2 [CE]2 | [DF]2 [DF]>[CE] [B,D]3 [CE] | %13
w: ||||
 FEF[FA] [GB]2 [FA]2 | [Fd] [Fd]2 [GB] [FA]FED |[M:8/4] F2 [CE]2 D4 z8 |] %16
w: |||
V:2
 [D,A,D]2 [D,A,D]>[D,F,C] [D,F,]3 E, | F,E,F,A, B,2 A,2 | %2
 [D,A,] [D,A,]2 [D,B,] [D,D][D,A,D][D,G,D][D,F,] | [B,,=G,]2 [E,G,]2 [A,,A,]4 | %4
 [D,A,D]2 [D,A,D]>[D,G,C] [D,F,]3 E, | F,E,F,A, B,2 A,2 | %6
 [D,A,] [D,A,]2 [D,A,] [D,D][D,A,D][E,A,C][F,A,] | [A,D]2 [A,,G,]2 [D,F,]4 | %8
 [D,A,] [D,A,]2 [D,A,] [D,A,]2 D,2 | F,E,F,A, B,2 A,2 | [D,A,] [D,A,]2 [D,A,] [D,A,]2 [D,D]2 | %11
 [D,A,D][D,A,D][C,A,][B,,=G,B,] [A,,A,]2 [A,,A,]2 | [D,A,]2 [D,A,]>[A,,G,] [B,,F,]3 [A,,A,] | %13
 [D,A,D][D,A,C][D,A,D][D,D] [D,D]2 [D,D]2 | [D,A,] [D,A,]2 [D,A,] [D,D][D,A,D][E,A,C][F,A,] | %15
[M:8/4] [A,D]2 [A,,G,]2 [D,F,]4 z8 |] %16
V:3
 x8 | x8 | x8 | x8 | x8 | x8 | x8 | z4 D4 | x8 | x8 | x8 | x8 | x8 | x8 | x8 |[M:8/4] x16 |] %16

